packages/ui-icons/src/Basic/16/Headphones_16.svg

<svg xmlns="http://www.w3.org/2000/svg" viewBox="0 0 20 20"><path d="M18 10a8 8 0 0 0-8.27-8A8.22 8.22 0 0 0 2 10.31V15h2v1a2 2 0 0 0 2 2h2v-7H6a2 2 0 0 0-2 2v1H3v-3.69A7.22 7.22 0 0 1 9.76 3 7 7 0 0 1 17 10v4h-1v-1a2 2 0 0 0-2-2h-2v7h2a2 2 0 0 0 2-2v-1h2ZM5 13a1 1 0 0 1 1-1h1v5H6a1 1 0 0 1-1-1Zm10 3a1 1 0 0 1-1 1h-1v-5h1a1 1 0 0 1 1 1Z"/></svg>

<svg id="ready" xmlns="http://www.w3.org/2000/svg" viewBox="0 0 20 20"><title>Megaicons_work_16_1.8_cp</title><path d="M18,10A8,8,0,0,0,9.73,2,8.22,8.22,0,0,0,2,10.31V15H4v1a2,2,0,0,0,2,2H8V11H6a2,2,0,0,0-2,2v1H3V10.31A7.22,7.22,0,0,1,9.76,3,7,7,0,0,1,17,10v4H16V13a2,2,0,0,0-2-2H12v7h2a2,2,0,0,0,2-2V15h2ZM5,13a1,1,0,0,1,1-1H7v5H6a1,1,0,0,1-1-1Zm10,3a1,1,0,0,1-1,1H13V12h1a1,1,0,0,1,1,1Z"/></svg>
